X:1
T:Ad coenam Agni 2
T:André Vierendeels
T:Early melody
T:(23/02/18)
T:Ad coenam Agni 2
T:ad voces aequales
T:©
T:©
C:André Vierendeels
Z:©
%%score [ 1 2 3 4 ]
L:1/8
Q:1/4=120
M:2/4
K:Bb
V:1 treble-8 nm="Tenor 1" snm="T 1"
V:2 treble-8 nm="Tenor 2" snm="T 2"
V:3 treble-8 nm="Tenor 3" snm="T 3"
V:4 bass nm="Bass" snm="B"
V:1
 G4 |[M:2/2] G2 A2 B4 | G4 F4 | B4 c4 | !fermata!d4 d4 | c4 f4 | g4 f2 =e2 | d4 ^c4 | %8
w: Ad|coe- * nam|A- gni|pro- vi-|di, sto-|lis in|al- nis _|can- di-|
 !fermata!d4 d4 | d4 f4 | c4 B2 A2 | B4 G4 | !fermata!A4 B4 | A4 G4 | c4 d2 c2 | B2 A2 G2 ^F2 | %16
w: di, post|trans- i-|tum ma- *|ris ru-|bri Chri-|sto ca-|na- mus _|prin- * * ci-|
 !fermata!G8 |] %17
w: pi.|
V:2
 D4 |[M:2/2] D2 F2 F4 | D4 A4 | G4 G4 | !fermata!B4 F4 | G4 A4 | c2 B2 c4 | A4 A4 | %8
w: Ad|coe- * nam|A- gni|pro- vi-|di, sto-|lis in|al- * mis|can- di-|
 !fermata!A4 =B4 | A4 A4 | =E4 D4 | G4 D4 | !fermata!D4 F4 | F4 B4 | A4 F2 G2 | F2 =E2 D4 | %16
w: di, post|trans- i-|tum ma-|ris ru-|bri Chri-|sto ca-|na- mus _|prin- * ci-|
 !fermata!D8 |] %17
w: pi.|
V:3
 D4 |[M:2/2] G2 F2 D4 | B,4 C4 | D4 E4 | !fermata!D4 D4 | E4 C4 | E2 D2 F2 G2 | F4 =E4 | %8
w: Ad|coe- * nam|A- gni|pro- vi-|di, sto-|lis in|al- * * mis|can- di-|
 !fermata!^F4 D4 |"^-natural" F4 A4 | G4 F4 | D4 B,4 | !fermata!F4 D4 | C4 D4 | F4 A2 G2 | %15
w: di, post|trans- i-|tum ma-|ris ru-|bri Chri-|sto ca-|na- mus _|
 B2 c2 A4 | !fermata!=B8 |] %17
w: prin- * ci-|pi.|
V:4
 G,,4 |[M:2/2] G,,2 F,,2 B,,4 | G,,4 F,,4 | G,,4 C,4 | !fermata!G,,4 B,,4 | C,4 F,,4 | %6
w: Ad|coe- * nam|A- gni|pro- vi-|di, sto-|lis in|
 C,2 G,,2 A,,2 C,2 | D,4 A,,4 | !fermata!D,4 G,,4 | D,4 F,4 | C,4 B,,4 | G,,4 G,,4 | %12
w: al- * * mis|can- di-|di, post|trans- i-|tum ma-|ris ru-|
 !fermata!D,4 B,,4 | F,,4 G,,4 | F,,4 D,2 =E,2 | D,2 C,2 D,4 | !fermata!G,,8 |] %17
w: bri Chri-|sto ca-|na- mus _|prin- * ci-|pi.|

